;FLAVOR:Marlin
;TIME:377
;Filament used: 0.388959m
;Layer height: 0.24
;MINX:109.987
;MINY:106.7
;MINZ:0.3
;MAXX:135.013
;MAXY:138.3
;MAXZ:1.74
;Generated with Cura_SteamEngine 5.0.0-beta+1
M140 S60
M105
M190 S60
M104 S210
M105
M109 S210
M82 ;absolute extrusion mode
G21 ;metric values
G90 ;absolute positioning
M82 ;set extruder to absolute mode
M107 ;start with the fan off
G28 X0 Y0 ;move X/Y to min endstops
M300 S1318 P266
G28 Z0 ;move Z to min endstops
G0 Z0.2
G92 E0 ;zero the extruded length
G1 X40 E25 F400 ; Extrude 25mm of filament in a 4cm line. Reduce speed (F) if you have a nozzle smaller than 0.4mm!
G92 E0 ;zero the extruded length again
G1 E-1 F500 ; Retract a little
G1 X80 F4000 ; Quickly wipe away from the filament line
M117 ; Printing…
G5
G92 E0
G92 E0
G1 F1500 E-6.5
;LAYER_COUNT:7
;LAYER:0
M107
;MESH:alieni2.stl(13)
G0 F3600 X111.523 Y115.756 Z0.3
;TYPE:WALL-OUTER
G1 F1500 E0
G1 F1800 X109.988 Y115.758 E0.07658
G1 X109.989 Y118.955 E0.23608
G1 X109.987 Y121.167 E0.34644
G1 X110.063 Y121.59 E0.36788
G1 X110.503 Y123.092 E0.44596
G1 X110.662 Y123.38 E0.46238
G1 X112.018 Y125.119 E0.57239
G1 X112.396 Y125.617 E0.60359
G1 X114.058 Y128.092 E0.75232
G1 X114.252 Y128.501 E0.7749
G1 X114.971 Y131.474 E0.9275
G1 X115.425 Y132.951 E1.00459
G1 X115.861 Y133.657 E1.04599
G1 X117.028 Y135.459 E1.1531
G1 X117.447 Y135.902 E1.18352
G1 X117.826 Y136.254 E1.20933
G1 X118.48 Y136.698 E1.24876
G1 X119.875 Y137.621 E1.33222
G1 X120.457 Y137.818 E1.36287
G1 X122.427 Y138.3 E1.46405
G1 X122.751 Y138.256 E1.48037
G1 X124.701 Y137.781 E1.5805
G1 X125.216 Y137.562 E1.60842
G1 X126.912 Y136.443 E1.70979
G1 X127.386 Y136.063 E1.7401
G1 X127.808 Y135.663 E1.76911
G1 X127.999 Y135.413 E1.7848
G1 X129.437 Y133.198 E1.91655
G1 X129.576 Y132.95 E1.93074
G1 X129.78 Y132.284 E1.96549
G1 X129.97 Y131.66 E1.99803
G1 X130.12 Y131.108 E2.02657
G1 X130.589 Y129.129 E2.12804
G1 X130.77 Y128.409 E2.16508
G1 X130.927 Y128.119 E2.18153
G1 X132.366 Y125.965 E2.31077
G1 X132.693 Y125.496 E2.33929
G1 X134.44 Y123.245 E2.48145
G1 X134.481 Y123.137 E2.48721
G1 X134.929 Y121.622 E2.56603
G1 X135.011 Y121.241 E2.58547
G1 X135.012 Y115.74 E2.85992
G1 X135.008 Y115.685 E2.86267
G1 X134.853 Y115.658 E2.87052
G1 X133.477 Y115.657 E2.93917
G1 X133.202 Y115.565 E2.95364
G1 X132.948 Y115.273 E2.97294
G1 X132.907 Y115.087 E2.98245
G1 X132.908 Y112.689 E3.10208
G1 X132.986 Y112.425 E3.11582
G1 X133.232 Y112.164 E3.13371
G1 X133.479 Y112.083 E3.14668
G1 X134.871 Y112.082 E3.21613
G1 X135.011 Y112.058 E3.22321
G1 X135.012 Y106.822 E3.48444
G1 X135.001 Y106.728 E3.48916
G1 X134.852 Y106.701 E3.49671
G1 X116.234 Y106.7 E4.42557
G1 X110.133 Y106.7 E4.72995
G1 X109.989 Y106.747 E4.73751
G1 X109.989 Y112.056 E5.00237
G1 X110.141 Y112.082 E5.01007
G1 X111.521 Y112.084 E5.07892
G1 X111.837 Y112.208 E5.09585
G1 X111.987 Y112.384 E5.10739
G1 X112.093 Y112.71 E5.12449
G1 X112.093 Y115.103 E5.24388
G1 X111.985 Y115.512 E5.26498
G1 X111.795 Y115.663 E5.27709
G1 X111.523 Y115.756 E5.29143
G0 F3600 X111.323 Y115.756
G1 F1500 E-1.20857
G0 F3600 X111.323 Y116.167
G0 X119.948 Y131.881
G0 X119.617 Y133.073
G1 F1500 E5.29143
G0 F3600 X120.02 Y133.141
G1 F1800 X120.174 Y132.654 E5.31691
G1 X120.475 Y132.129 E5.34711
G1 X120.506 Y132.088 E5.34967
G1 X120.916 Y131.673 E5.37878
G1 X121.352 Y131.393 E5.40463
G1 X121.39 Y131.375 E5.40672
G1 X121.949 Y131.172 E5.4364
G1 X121.977 Y131.167 E5.43781
G1 X122.594 Y131.112 E5.46872
G1 X123.092 Y131.184 E5.49382
G1 X123.511 Y131.326 E5.51589
G1 X124.046 Y131.64 E5.54684
G1 X124.073 Y131.663 E5.54861
G1 X124.47 Y132.056 E5.57648
G1 X124.74 Y132.469 E5.6011
G1 X124.948 Y133.001 E5.6296
G1 X124.96 Y133.05 E5.63211
G1 X125.03 Y133.633 E5.66141
G1 X125.03 Y133.686 E5.66405
G1 X124.94 Y134.312 E5.69561
G1 X124.706 Y134.884 E5.72644
G1 X124.681 Y134.927 E5.72892
G1 X124.339 Y135.38 E5.75724
G1 X124.306 Y135.415 E5.75964
G1 X123.873 Y135.768 E5.78751
G1 X123.416 Y136.002 E5.81312
G1 X123.378 Y136.017 E5.81516
G1 X122.85 Y136.157 E5.84241
G1 X122.196 Y136.157 E5.87504
G1 X121.703 Y136.043 E5.90029
G1 X121.169 Y135.794 E5.92968
G1 X121.113 Y135.755 E5.93309
G1 X120.694 Y135.415 E5.96001
G1 X120.658 Y135.376 E5.96266
G1 X120.272 Y134.838 E5.99569
G1 X120.037 Y134.214 E6.02896
G1 X119.972 Y133.737 E6.05297
G1 X120.02 Y133.141 E6.08281
G0 F3600 X120.08 Y132.951
G0 X119.674 Y132.843
G0 X119.567 Y133.836
G0 X119.577 Y133.836
;TYPE:WALL-INNER
G1 F1800 X119.573 Y133.705 E6.08934
G1 X119.621 Y133.109 E6.11917
G1 X119.775 Y132.573 E6.147
G1 X119.827 Y132.455 E6.15343
G1 X120.128 Y131.93 E6.18362
G1 X120.222 Y131.807 E6.19135
G1 X120.632 Y131.392 E6.22045
G1 X121.14 Y131.054 E6.25089
G1 X121.253 Y130.999 E6.25716
G1 X121.836 Y130.788 E6.28809
G1 X121.941 Y130.769 E6.29342
G1 X122.581 Y130.712 E6.32547
G1 X123.086 Y130.772 E6.35085
G1 X123.595 Y130.928 E6.37741
G1 X124.236 Y131.287 E6.41406
G1 X124.355 Y131.379 E6.42156
G1 X124.752 Y131.772 E6.44943
G1 X125.056 Y132.213 E6.47616
G1 X125.263 Y132.708 E6.50292
G1 X125.357 Y133.002 E6.51832
G1 X125.427 Y133.585 E6.54762
G1 X125.426 Y133.743 E6.5555
G1 X125.336 Y134.369 E6.58705
G1 X125.14 Y134.886 E6.61464
G1 X125 Y135.168 E6.63035
G1 X124.658 Y135.621 E6.65866
G1 X124.559 Y135.725 E6.66583
G1 X124.126 Y136.078 E6.6937
G1 X123.596 Y136.36 E6.72365
G1 X123.48 Y136.404 E6.72984
G1 X122.945 Y136.546 E6.75746
G1 X122.192 Y136.557 E6.79503
G1 X121.652 Y136.446 E6.82253
G1 X121.534 Y136.405 E6.82876
G1 X121 Y136.156 E6.85816
G1 X120.86 Y136.065 E6.86649
G1 X120.441 Y135.725 E6.89341
G1 X120.333 Y135.609 E6.90132
G1 X119.947 Y135.071 E6.93435
G1 X119.661 Y134.35 E6.97305
G1 X119.577 Y133.836 E6.99903
G1 F1500 E0.49903
G0 F3600 X119.567 Y133.836
G0 X119.603 Y132.519
G0 X112.017 Y116.221
G1 F1500 E6.99903
G0 F3600 X111.943 Y116.035
G1 F1800 X111.524 Y116.156 E7.02079
G1 X110.388 Y116.158 E7.07747
G1 X110.389 Y118.955 E7.21701
G1 X110.387 Y121.144 E7.32622
G1 X110.447 Y121.478 E7.34315
G1 X110.881 Y122.959 E7.42014
G1 X110.978 Y123.134 E7.43013
G1 X112.336 Y124.877 E7.54036
G1 X112.728 Y125.394 E7.57273
G1 X114.394 Y127.874 E7.72178
G1 X114.621 Y128.323 E7.74689
G1 X115.357 Y131.368 E7.90318
G1 X115.756 Y132.668 E7.97102
G1 X115.906 Y132.989 E7.9887
G1 X117.353 Y135.225 E8.12157
G1 X117.724 Y135.613 E8.14835
G1 X118.114 Y135.972 E8.1748
G1 X118.701 Y136.364 E8.21001
G1 X120.063 Y137.266 E8.29152
G1 X120.552 Y137.43 E8.31725
G1 X121.125 Y137.569 E8.34666
G1 X122.475 Y137.9 E8.41601
G1 X123.233 Y137.728 E8.45479
G1 X123.255 Y137.721 E8.45594
G1 X124.585 Y137.397 E8.52423
G1 X124.996 Y137.228 E8.54641
G1 X126.68 Y136.117 E8.64706
G1 X127.111 Y135.773 E8.67457
G1 X127.514 Y135.391 E8.70227
G1 X127.663 Y135.195 E8.71456
G1 X129.094 Y132.991 E8.84566
G1 X129.256 Y132.626 E8.86558
G1 X129.517 Y131.782 E8.90965
G1 X129.682 Y131.221 E8.93883
G1 X130.201 Y129.032 E9.05107
G1 X130.385 Y128.299 E9.08877
G1 X130.595 Y127.897 E9.1114
G1 X132.038 Y125.737 E9.241
G1 X132.377 Y125.25 E9.2706
G1 X134.09 Y123.042 E9.41002
G1 X134.386 Y122.049 E9.46172
G1 X134.541 Y121.524 E9.48903
G1 X134.611 Y121.199 E9.50561
G1 X134.612 Y116.058 E9.7621
G1 X133.477 Y116.057 E9.81872
G1 X133.064 Y115.954 E9.83996
G1 X132.679 Y115.606 E9.86585
G1 X132.56 Y115.373 E9.8789
G1 X132.507 Y115.087 E9.89341
G1 X132.507 Y112.71 E10.012
G1 X132.596 Y112.299 E10.03298
G1 X132.837 Y111.973 E10.05321
G1 X133.09 Y111.79 E10.06879
G1 X133.479 Y111.683 E10.08892
G1 X134.611 Y111.682 E10.14539
G1 X134.611 Y107.101 E10.37394
G1 X116.234 Y107.1 E11.29077
G1 X110.389 Y107.101 E11.58238
G1 X110.387 Y111.682 E11.81093
G1 X111.521 Y111.684 E11.8675
G1 X111.919 Y111.793 E11.88809
G1 X112.119 Y111.924 E11.90002
G1 X112.309 Y112.135 E11.91418
G1 X112.486 Y112.613 E11.93961
G1 X112.493 Y112.71 E11.94446
G1 X112.492 Y115.133 E12.06535
G1 X112.376 Y115.631 E12.09086
G1 X112.209 Y115.853 E12.10472
G1 X111.943 Y116.035 E12.1208
G0 F3600 X112.491 Y116.111
;TYPE:SKIN
G1 F1800 X112.068 Y116.393 E12.14616
G1 X111.571 Y116.53 E12.17188
G1 X111.519 Y116.536 E12.17449
G1 X110.768 Y116.538 E12.21196
G1 X110.768 Y121.052 E12.43717
G1 X110.833 Y121.441 E12.45684
G1 X111.236 Y122.811 E12.52809
G1 X111.302 Y122.931 E12.53492
G1 X113.016 Y125.145 E12.67461
G1 X114.707 Y127.66 E12.82581
G1 X114.955 Y128.117 E12.85175
G1 X114.972 Y128.173 E12.85467
G1 X115.707 Y131.195 E13.00983
G1 X116.084 Y132.439 E13.07468
G1 X116.295 Y132.884 E13.09925
G1 X117.657 Y134.994 E13.22455
G1 X118.005 Y135.354 E13.24953
G1 X118.395 Y135.704 E13.27567
G1 X118.91 Y136.045 E13.30649
G1 F1698.1 X119.475 Y136.391 E13.34152
G1 F1417.3 X119.814 Y136.544 E13.36509
G1 F1292.6 X120.236 Y136.837 E13.40078
G1 F1382 X120.662 Y137.015 E13.43078
G1 F1538.5 X121.215 Y137.179 E13.46445
G1 F1643.8 X121.291 Y137.2 E13.46876
G1 F1655.2 X121.941 Y137.361 E13.50509
G1 F1565.2 X122.434 Y137.454 E13.53387
G1 F1578.9 X123.099 Y137.351 E13.57215
G1 F1678.3 X123.685 Y137.207 E13.60443
G1 F1561.8 X124.373 Y136.991 E13.6459
G1 F1392.6 X124.762 Y136.84 E13.6728
G1 F1288 X125.244 Y136.503 E13.71381
G1 F1392.6 X125.495 Y136.407 E13.73114
G1 F1678.3 X125.983 Y136.121 E13.7614
G1 F1800 X126.431 Y135.825 E13.78819
G1 X126.852 Y135.492 E13.81497
G1 X127.29 Y135.06 E13.84566
G1 X128.635 Y133 E13.9684
G1 X128.855 Y132.637 E13.98958
G1 X129.294 Y131.186 E14.06521
G1 X130.015 Y128.205 E14.21822
G1 X130.241 Y127.745 E14.24379
G1 X131.549 Y125.782 E14.36148
G1 X132.046 Y125.057 E14.40533
G1 X133.747 Y122.86 E14.54395
G1 X134.019 Y121.946 E14.59153
G1 X134.231 Y121.151 E14.63258
G1 X134.231 Y117.136 E14.83289
G1 X134.231 Y116.438 E14.86771
G1 X133.533 Y116.438 E14.90253
G1 X133.06 Y116.359 E14.92646
G1 X132.727 Y116.185 E14.9452
G1 X132.373 Y115.831 E14.97018
G1 X132.208 Y115.516 E14.98792
G1 X132.127 Y115.085 E15.0098
G1 X132.131 Y112.63 E15.13228
G1 X132.268 Y112.111 E15.15906
G1 X132.582 Y111.694 E15.1851
G1 X132.962 Y111.432 E15.20813
G1 X133.467 Y111.306 E15.2341
G1 X134.231 Y111.302 E15.27221
G1 X134.231 Y107.481 E15.46284
G1 X110.769 Y107.482 E16.63337
G1 X110.767 Y111.302 E16.82395
G1 X111.516 Y111.304 E16.86132
G1 X111.881 Y111.372 E16.87984
G1 X112.267 Y111.558 E16.90122
G1 X112.626 Y111.927 E16.9269
G1 X112.823 Y112.408 E16.95283
G1 X112.873 Y112.708 E16.96801
G1 X112.873 Y115.099 E17.08729
G1 X112.86 Y115.247 E17.09471
G1 X112.733 Y115.763 E17.12122
G1 X112.491 Y116.111 E17.14236
G1 F1500 E10.64236
G0 F3600 X112.304 Y115.902
G0 X119.948 Y131.881
G0 X119.521 Y133.106
G1 F1500 E17.14236
G0 F3600 X119.245 Y133.06
G1 F1800 X119.406 Y132.512 E17.17086
G1 X119.493 Y132.272 E17.1836
G1 X119.785 Y131.766 E17.21274
G1 X119.95 Y131.54 E17.2267
G1 X120.358 Y131.125 E17.25574
G1 X120.541 Y130.981 E17.26735
G1 X121.057 Y130.666 E17.29752
G1 X121.61 Y130.464 E17.32689
G1 X121.857 Y130.396 E17.33967
G1 X122.525 Y130.335 E17.37313
G1 X122.552 Y130.336 E17.37448
G1 X123.145 Y130.397 E17.40422
G1 X123.609 Y130.534 E17.42836
G1 X124.051 Y130.738 E17.45265
G1 X124.591 Y131.082 E17.48459
G1 X124.625 Y131.109 E17.48676
G1 X125.032 Y131.515 E17.51544
G1 X125.451 Y132.152 E17.55348
G1 X125.646 Y132.689 E17.58198
G1 X125.735 Y132.955 E17.59597
G1 X125.805 Y133.535 E17.62512
G1 X125.802 Y133.797 E17.63819
G1 X125.721 Y134.368 E17.66696
G1 X125.49 Y135.011 E17.70105
G1 X125.304 Y135.397 E17.72243
G1 F1678.3 X124.987 Y135.865 E17.75267
G1 F1400.8 X124.852 Y136.085 E17.76922
G1 F1295 X124.442 Y136.403 E17.8052
G1 F1445.8 X123.772 Y136.714 E17.85108
G1 F1629 X123.58 Y136.788 E17.86243
G1 F1678.3 X123.026 Y136.931 E17.89304
G1 F1578.9 X122.499 Y136.976 E17.92312
G1 F1568.6 X121.969 Y136.926 E17.9536
G1 F1651.4 X121.36 Y136.767 E17.98783
G1 F1531.9 X120.809 Y136.542 E18.02272
G1 F1376.7 X120.538 Y136.383 E18.04321
G1 F1285.7 X120.116 Y136.06 E18.08033
G1 F1406.2 X120.002 Y135.844 E18.09593
G1 F1698.1 X119.637 Y135.292 E18.13092
G1 F1800 X119.429 Y134.826 E18.15638
G1 X119.262 Y134.316 E18.18316
G1 X119.254 Y134.274 E18.18529
G1 X119.194 Y133.714 E18.21339
G1 X119.194 Y133.676 E18.21528
G1 X119.245 Y133.06 E18.24612
G1 F1500 E11.74612
G0 F3600 X119.521 Y133.106
G0 X120.216 Y131.891
G0 X121.679 Y130.651
G0 X132.307 Y115.087
G0 X132.346 Y112.71
G0 X133.205 Y111.574
G0 X134.511 Y108.009
G1 F1500 E18.24612
G0 F3600 X134.03 Y108.009
G1 F1800 X133.703 Y107.681 E18.26923
G0 F3600 X133.137 Y107.681
G1 F1800 X134.03 Y108.574 E18.33224
G0 F3600 X134.03 Y109.14
G1 F1800 X132.571 Y107.681 E18.43518
G0 F3600 X132.006 Y107.681
G1 F1800 X134.03 Y109.706 E18.57801
G0 F3600 X134.03 Y110.271
G1 F1800 X131.44 Y107.681 E18.76075
G0 F3600 X130.874 Y107.681
G1 F1800 X134.03 Y110.837 E18.98343
G0 F3600 X133.731 Y111.104
G1 F1800 X130.309 Y107.681 E19.2249
G0 F3600 X129.743 Y107.681
G1 F1800 X133.225 Y111.163 E19.47058
G0 F3600 X132.804 Y111.308
G1 F1800 X129.177 Y107.681 E19.72648
G0 F3600 X128.612 Y107.681
G1 F1800 X132.463 Y111.532 E19.99819
G0 F3600 X132.216 Y111.851
G1 F1800 X128.046 Y107.681 E20.29241
G0 F3600 X127.48 Y107.681
G1 F1800 X132.033 Y112.234 E20.61364
G0 F3600 X131.929 Y112.696
G1 F1800 X126.915 Y107.681 E20.96744
G0 F3600 X126.349 Y107.681
G1 F1800 X131.929 Y113.262 E21.36118
G0 F3600 X131.929 Y113.827
G1 F1800 X125.783 Y107.681 E21.79481
G0 F3600 X125.218 Y107.681
G1 F1800 X131.929 Y114.392 E22.26831
G0 F3600 X131.929 Y114.958
G1 F1800 X124.652 Y107.681 E22.78174
G0 F3600 X124.086 Y107.681
G1 F1800 X132.035 Y115.631 E23.34262
G1 X132.105 Y115.701
G0 F3600 X132.504 Y115.513
G0 X133.609 Y116.158
G0 X133.608 Y116.637
G1 F1800 X134.029 Y117.059 E23.37236
G0 F3600 X134.029 Y117.625
G1 F1800 X132.897 Y116.492 E23.45226
G1 X132.827 Y116.422
G0 F3600 X133.015 Y116.042
G0 X134.44 Y116.23
G0 X134.511 Y118.191
G0 X134.029 Y118.19
G1 F1800 X123.52 Y107.681 E24.19373
G0 F3600 X122.955 Y107.681
G1 F1800 X134.029 Y118.756 E24.9751
G0 F3600 X134.029 Y119.322
G1 F1800 X122.389 Y107.681 E25.7964
G0 F3600 X121.823 Y107.681
G1 F1800 X134.029 Y119.887 E26.6576
G0 F3600 X134.029 Y120.453
G1 F1800 X121.258 Y107.681 E27.55869
G0 F3600 X120.692 Y107.681
G1 F1800 X134.029 Y121.019 E28.49973
G0 F3600 X133.932 Y121.487
G1 F1800 X120.126 Y107.681 E29.47381
G0 F3600 X119.561 Y107.681
G1 F1800 X133.812 Y121.932 E30.4793
G0 F3600 X133.683 Y122.369
G1 F1800 X118.995 Y107.681 E31.51562
G0 F3600 X118.429 Y107.681
G1 F1800 X133.543 Y122.795 E32.58199
G0 F3600 X133.296 Y123.114
G1 F1800 X117.864 Y107.681 E33.67084
G0 F3600 X117.298 Y107.681
G1 F1800 X133.049 Y123.433 E34.78219
G0 F3600 X132.803 Y123.752
G1 F1800 X116.732 Y107.681 E35.91609
G0 F3600 X116.167 Y107.681
G1 F1800 X132.556 Y124.071 E37.07246
G0 F3600 X132.309 Y124.389
G1 F1800 X115.601 Y107.681 E38.25129
G0 F3600 X115.035 Y107.681
G1 F1800 X132.062 Y124.708 E39.45264
G0 F3600 X131.82 Y125.032
G1 F1800 X114.469 Y107.681 E40.67685
G0 F3600 X113.904 Y107.681
G1 F1800 X131.591 Y125.369 E41.9248
G0 F3600 X131.363 Y125.706
G1 F1800 X113.338 Y107.681 E43.19656
G0 F3600 X112.772 Y107.681
G1 F1800 X131.135 Y126.043 E44.49213
G0 F3600 X130.908 Y126.383
G1 F1800 X112.207 Y107.681 E45.81162
G0 F3600 X111.641 Y107.681
G1 F1800 X130.683 Y126.723 E47.15514
G0 F3600 X130.457 Y127.063
G1 F1800 X111.075 Y107.681 E48.52264
G0 F3600 X110.967 Y108.139
G1 F1800 X130.231 Y127.402 E49.88179
G0 F3600 X130.014 Y127.751
G1 F1800 X110.967 Y108.704 E51.22566
G0 F3600 X110.967 Y109.27
G1 F1800 X129.831 Y128.134 E52.55661
G0 F3600 X129.716 Y128.585
G1 F1800 X110.966 Y109.835 E53.87953
G1 X110.896 Y109.765
G0 F3600 X110.489 Y109.763
G0 X110.559 Y111.51
G0 X111.829 Y111.568
G0 X112.578 Y112.576
G0 X113.026 Y112.46
G1 F1800 X129.606 Y129.04 E55.04934
G0 F3600 X129.496 Y129.496
G1 F1800 X113.072 Y113.072 E56.20814
G0 F3600 X113.072 Y113.638
G1 F1800 X129.385 Y129.951 E57.35911
G0 F3600 X129.275 Y130.406
G1 F1800 X113.072 Y114.204 E58.50228
G0 F3600 X113.072 Y114.769
G1 F1800 X129.165 Y130.862 E59.63773
G0 F3600 X129.048 Y131.311
G1 F1800 X113.045 Y115.307 E60.76686
G0 F3600 X112.937 Y115.766
G1 F1800 X128.916 Y131.745 E61.89427
G0 F3600 X128.785 Y132.179
G1 F1800 X112.723 Y116.117 E63.02753
G0 F3600 X112.428 Y116.388
G1 F1800 X128.641 Y132.601 E64.17144
G0 F3600 X128.424 Y132.95
G1 F1800 X112.073 Y116.599 E65.3251
G0 F3600 X111.629 Y116.72
