;FLAVOR:Marlin
;TIME:3341
;Filament used: 3.50218m
;Layer height: 0.24
;MINX:77.674
;MINY:56.328
;MINZ:0.3
;MAXX:173.945
;MAXY:169.74
;MAXZ:1.74
;Generated with Cura_SteamEngine 5.0.0-beta+1
M140 S60
M105
M190 S60
M104 S210
M105
M109 S210
M82 ;absolute extrusion mode
G21 ;metric values
G90 ;absolute positioning
M82 ;set extruder to absolute mode
M107 ;start with the fan off
G28 X0 Y0 ;move X/Y to min endstops
M300 S1318 P266
G28 Z0 ;move Z to min endstops
G0 Z0.2
G92 E0 ;zero the extruded length
G1 X40 E25 F400 ; Extrude 25mm of filament in a 4cm line. Reduce speed (F) if you have a nozzle smaller than 0.4mm!
G92 E0 ;zero the extruded length again
G1 E-1 F500 ; Retract a little
G1 X80 F4000 ; Quickly wipe away from the filament line
M117 ; Printing…
G5
G92 E0
G92 E0
G1 F1500 E-6.5
;LAYER_COUNT:7
;LAYER:0
M107
;MESH:alieni2.stl(13)
G0 F3600 X94.862 Y84.281 Z0.3
;TYPE:WALL-OUTER
G1 F1500 E0
G1 F1800 X93.327 Y84.283 E0.07658
G1 X93.328 Y87.465 E0.23533
G1 X93.326 Y89.692 E0.34644
G1 X93.402 Y90.115 E0.36788
G1 X93.843 Y91.618 E0.44603
G1 X94.001 Y91.904 E0.46233
G1 X95.736 Y94.142 E0.6036
G1 X97.396 Y96.617 E0.75228
G1 X97.572 Y96.942 E0.77072
G1 X98.31 Y99.999 E0.92762
G1 X98.764 Y101.476 E1.00471
G1 X99.204 Y102.187 E1.04642
G1 X100.367 Y103.984 E1.15321
G1 X100.751 Y104.392 E1.18117
G1 X101.164 Y104.779 E1.2094
G1 X101.64 Y105.106 E1.23822
G1 X103.214 Y106.146 E1.33234
G1 X103.8 Y106.345 E1.36321
G1 X105.766 Y106.825 E1.46418
G1 X106.199 Y106.755 E1.48606
G1 X108.04 Y106.306 E1.5806
G1 X108.557 Y106.086 E1.60863
G1 X110.305 Y104.934 E1.71307
G1 X110.334 Y104.913 E1.71486
G1 X110.728 Y104.586 E1.74041
G1 X111.147 Y104.188 E1.76924
G1 X111.34 Y103.936 E1.78507
G1 X112.776 Y101.723 E1.91669
G1 X112.914 Y101.475 E1.93085
G1 X113.369 Y99.999 E2.0079
G1 X114.109 Y96.934 E2.16521
G1 X114.266 Y96.643 E2.18171
G1 X115.793 Y94.358 E2.31882
G1 X116.036 Y94.015 E2.33979
G1 X117.78 Y91.77 E2.48162
G1 X117.822 Y91.663 E2.48735
G1 X118.269 Y90.147 E2.56621
G1 X118.351 Y89.766 E2.58565
G1 X118.352 Y84.263 E2.8602
G1 X118.194 Y84.183 E2.86903
G1 X116.819 Y84.182 E2.93763
G1 X116.56 Y84.106 E2.9511
G1 X116.291 Y83.811 E2.97101
G1 X116.247 Y83.613 E2.98113
G1 X116.248 Y81.214 E3.10082
G1 X116.326 Y80.951 E3.11451
G1 X116.569 Y80.691 E3.13226
G1 X116.819 Y80.608 E3.1454
G1 X118.211 Y80.607 E3.21485
G1 X118.351 Y80.582 E3.22194
G1 X118.352 Y75.347 E3.48312
G1 X118.34 Y75.253 E3.48785
G1 X118.191 Y75.226 E3.4954
G1 X99.579 Y75.225 E4.42396
G1 X93.472 Y75.225 E4.72864
G1 X93.328 Y75.272 E4.7362
G1 X93.327 Y80.582 E5.00111
G1 X93.481 Y80.607 E5.0089
G1 X94.86 Y80.609 E5.07769
G1 X95.178 Y80.735 E5.09476
G1 X95.326 Y80.908 E5.10612
G1 X95.432 Y81.235 E5.12327
G1 X95.432 Y83.629 E5.24271
G1 X95.321 Y84.042 E5.26404
G1 X95.134 Y84.188 E5.27588
G1 X94.862 Y84.281 E5.29022
G0 F3600 X94.662 Y84.281
G1 F1500 E-1.20978
G0 F3600 X94.662 Y84.692
G0 X103.282 Y100.415
G0 X102.957 Y101.598
G1 F1500 E5.29022
G0 F3600 X103.36 Y101.667
G1 F1800 X103.516 Y101.17 E5.31621
G1 X103.815 Y100.653 E5.346
G1 X103.845 Y100.614 E5.34846
G1 X104.237 Y100.212 E5.37647
G1 X104.688 Y99.936 E5.40285
G1 X105.021 Y99.785 E5.42109
G1 X105.317 Y99.693 E5.43656
G1 X105.938 Y99.636 E5.46767
G1 X106.196 Y99.664 E5.48062
G1 X106.803 Y99.831 E5.51202
G1 X107.372 Y100.158 E5.54477
G1 X107.412 Y100.188 E5.54726
G1 X107.809 Y100.581 E5.57513
G1 X108.128 Y101.096 E5.60535
G1 X108.289 Y101.531 E5.62849
G1 X108.299 Y101.574 E5.6307
G1 X108.37 Y102.158 E5.66005
G1 X108.369 Y102.212 E5.66274
G1 X108.278 Y102.837 E5.69425
G1 X108.046 Y103.41 E5.72509
G1 X107.821 Y103.74 E5.74502
G1 X107.452 Y104.114 E5.77123
G1 X106.914 Y104.459 E5.80312
G1 X106.41 Y104.636 E5.82977
G1 X105.899 Y104.709 E5.85552
G1 X105.493 Y104.677 E5.87584
G1 X105.043 Y104.568 E5.89894
G1 X104.508 Y104.32 E5.92836
G1 X104.455 Y104.284 E5.93155
G1 X104.034 Y103.939 E5.95871
G1 X104.001 Y103.905 E5.96107
G1 X103.658 Y103.452 E5.98942
G1 X103.445 Y102.989 E6.01485
G1 X103.314 Y102.316 E6.04905
G1 X103.311 Y102.262 E6.05175
G1 X103.36 Y101.667 E6.08154
G0 F3600 X103.42 Y101.476
G0 X102.912 Y102.229
;TYPE:WALL-INNER
G1 F1800 X102.961 Y101.634 E6.11132
G1 X103.117 Y101.091 E6.13951
G1 X103.17 Y100.97 E6.1461
G1 X103.469 Y100.453 E6.1759
G1 X103.559 Y100.335 E6.1833
G1 X103.951 Y99.933 E6.21131
G1 X104.483 Y99.592 E6.24284
G1 X104.897 Y99.405 E6.2655
G1 X105.28 Y99.295 E6.28538
G1 X105.92 Y99.237 E6.31744
G1 X106.302 Y99.278 E6.33661
G1 X106.92 Y99.449 E6.3686
G1 X107.574 Y99.812 E6.40592
G1 X107.694 Y99.904 E6.41346
G1 X108.091 Y100.297 E6.44133
G1 X108.47 Y100.888 E6.47636
G1 X108.666 Y101.396 E6.50352
G1 X108.696 Y101.526 E6.51018
G1 X108.767 Y102.11 E6.53953
G1 X108.765 Y102.27 E6.54751
G1 X108.674 Y102.895 E6.57902
G1 X108.415 Y103.564 E6.61481
G1 X108.108 Y104.018 E6.64216
G1 X107.672 Y104.448 E6.67271
G1 X107.13 Y104.796 E6.70484
G1 X106.538 Y105.015 E6.73633
G1 X105.953 Y105.106 E6.76587
G1 X105.402 Y105.067 E6.79343
G1 X104.875 Y104.931 E6.82058
G1 X104.34 Y104.683 E6.85
G1 X104.201 Y104.593 E6.85826
G1 X103.78 Y104.248 E6.88542
G1 X103.682 Y104.147 E6.89244
G1 X103.339 Y103.694 E6.92079
G1 X103.106 Y103.211 E6.94754
G1 X102.99 Y102.764 E6.97058
G1 X102.912 Y102.229 E6.99755
G1 F1500 E0.49755
G0 F3600 X102.901 Y102.229
G0 X103.282 Y100.415
G0 X95.356 Y84.746
G1 F1500 E6.99755
G0 F3600 X95.282 Y84.56
G1 F1800 X94.863 Y84.681 E7.01931
G1 X93.727 Y84.683 E7.07599
G1 X93.728 Y87.465 E7.21478
G1 X93.726 Y89.669 E7.32474
G1 X93.786 Y90.003 E7.34167
G1 X94.221 Y91.485 E7.41873
G1 X94.317 Y91.659 E7.42864
G1 X96.068 Y93.919 E7.57128
G1 X97.732 Y96.399 E7.72027
G1 X97.961 Y96.848 E7.74542
G1 X98.696 Y99.893 E7.9017
G1 X99.134 Y101.318 E7.97607
G1 X99.54 Y101.97 E8.01439
G1 X100.692 Y103.749 E8.12013
G1 X101.326 Y104.389 E8.16508
G1 X101.861 Y104.772 E8.1979
G1 X103.403 Y105.791 E8.29011
G1 X103.895 Y105.956 E8.316
G1 X104.468 Y106.096 E8.34543
G1 X105.814 Y106.425 E8.41456
G1 X106.65 Y106.233 E8.45735
G1 X107.924 Y105.922 E8.52278
G1 X108.337 Y105.752 E8.54506
G1 X110.098 Y104.59 E8.65032
G1 X110.779 Y103.987 E8.6957
G1 X111.004 Y103.718 E8.7132
G1 X112.433 Y101.516 E8.84416
G1 X112.615 Y101.088 E8.86737
G1 X112.983 Y99.893 E8.92975
G1 X113.718 Y96.848 E9.08603
G1 X113.934 Y96.421 E9.1099
G1 X115.466 Y94.128 E9.24748
G1 X115.72 Y93.769 E9.26942
G1 X117.431 Y91.567 E9.40855
G1 X117.438 Y91.549 E9.40951
G1 X117.881 Y90.049 E9.48754
G1 X117.951 Y89.724 E9.50413
G1 X117.952 Y84.583 E9.76061
G1 X116.819 Y84.582 E9.81714
G1 X116.402 Y84.478 E9.83858
G1 X116.018 Y84.129 E9.86447
G1 X115.899 Y83.895 E9.87756
G1 X115.847 Y83.613 E9.89187
G1 X115.847 Y81.235 E10.01051
G1 X115.936 Y80.826 E10.03139
G1 X116.174 Y80.501 E10.05149
G1 X116.425 Y80.318 E10.06699
G1 X116.819 Y80.208 E10.08739
G1 X117.951 Y80.207 E10.14387
G1 X117.951 Y75.626 E10.37242
G1 X99.579 Y75.625 E11.289
G1 X93.728 Y75.626 E11.58091
G1 X93.726 Y80.207 E11.80945
G1 X94.86 Y80.209 E11.86603
G1 X95.26 Y80.32 E11.88674
G1 X95.559 Y80.548 E11.9055
G1 X95.702 Y80.771 E11.91872
G1 X95.825 Y81.138 E11.93803
G1 X95.832 Y81.235 E11.94288
G1 X95.831 Y83.659 E12.06381
G1 X95.715 Y84.157 E12.08932
G1 X95.546 Y84.381 E12.10332
G1 X95.282 Y84.56 E12.11924
G0 F3600 X95.83 Y84.636
;TYPE:SKIN
G1 F1800 X95.407 Y84.918 E12.1446
G1 X94.91 Y85.055 E12.17032
G1 X94.858 Y85.061 E12.17293
G1 X94.107 Y85.063 E12.2104
G1 X94.107 Y89.577 E12.4356
G1 X94.172 Y89.966 E12.45528
G1 X94.583 Y91.357 E12.52764
G1 X94.626 Y91.433 E12.532
G1 X96.352 Y93.661 E12.67261
G1 X98.081 Y96.24 E12.82751
G1 X98.319 Y96.719 E12.8542
G1 X99.063 Y99.792 E13.01194
G1 X99.421 Y100.961 E13.07293
G1 X99.632 Y101.406 E13.0975
G1 X100.965 Y103.473 E13.22021
G1 X101.319 Y103.853 E13.24612
G1 X101.689 Y104.197 E13.27133
G1 X102.359 Y104.642 E13.31145
G1 F1670.5 X102.848 Y104.929 E13.34193
G1 F1398.1 X103.15 Y105.066 E13.36324
G1 F1292.6 X103.577 Y105.363 E13.39937
G1 F1382 X104.005 Y105.544 E13.42957
G1 F1538.5 X104.56 Y105.706 E13.46332
G1 F1655.2 X105.205 Y105.869 E13.49941
G1 F1670.5 X105.273 Y105.884 E13.50315
G1 F1589.4 X105.775 Y105.987 E13.53211
G1 F1551.7 X106.034 Y105.961 E13.54717
G1 F1636.4 X106.6 Y105.84 E13.57894
G1 F1643.8 X107.29 Y105.659 E13.61791
G1 F1448.7 X107.998 Y105.409 E13.66445
G1 F1299.6 X108.471 Y105.11 E13.70312
G1 F1493.8 X109.029 Y104.84 E13.74038
G1 F1800 X109.643 Y104.436 E13.77705
G1 X110.088 Y104.116 E13.8044
G1 X110.524 Y103.701 E13.83443
G1 X110.696 Y103.493 E13.84789
G1 X111.931 Y101.59 E13.96107
G1 X112.193 Y101.162 E13.98611
G1 X112.593 Y99.863 E14.05392
G1 X113.347 Y96.758 E14.21333
G1 X113.572 Y96.285 E14.23946
G1 X113.659 Y96.151 E14.24743
G1 X114.887 Y94.306 E14.35801
G1 X115.397 Y93.564 E14.40293
G1 X117.089 Y91.384 E14.5406
G1 X117.359 Y90.469 E14.5882
G1 X117.571 Y89.676 E14.62915
G1 X117.571 Y85.66 E14.82951
G1 X117.571 Y84.963 E14.86428
G1 X116.856 Y84.962 E14.89995
G1 X116.556 Y84.928 E14.91502
G1 X116.183 Y84.787 E14.93491
G1 X115.79 Y84.443 E14.96097
G1 X115.57 Y84.091 E14.98168
G1 X115.469 Y83.673 E15.00313
G1 X115.467 Y81.236 E15.12471
G1 X115.538 Y80.821 E15.14572
G1 X115.72 Y80.46 E15.16589
G1 X116.071 Y80.08 E15.1917
G1 X116.302 Y79.958 E15.20473
G1 X116.824 Y79.828 E15.23157
G1 X117.571 Y79.827 E15.26884
G1 X117.571 Y76.006 E15.45947
G1 X94.108 Y76.006 E16.63004
G1 X94.106 Y79.827 E16.82067
G1 X94.855 Y79.829 E16.85804
G1 X95.318 Y79.939 E16.88178
G1 X95.609 Y80.085 E16.89802
G1 X95.967 Y80.454 E16.92367
G1 X96.164 Y80.935 E16.94961
G1 X96.212 Y81.233 E16.96466
G1 X96.212 Y83.627 E17.0841
G1 X96.082 Y84.258 E17.11624
G1 X95.83 Y84.636 E17.13891
G1 F1500 E10.63891
G0 F3600 X95.646 Y84.425
G0 X103.282 Y100.415
G0 X102.861 Y101.631
G1 F1500 E17.13891
G0 F3600 X102.585 Y101.585
G1 F1800 X102.747 Y101.035 E17.16751
G1 X102.839 Y100.78 E17.18104
G1 X103.109 Y100.313 E17.20795
G1 X103.286 Y100.07 E17.22295
G1 X103.676 Y99.67 E17.25082
G1 X104.308 Y99.253 E17.2886
G1 X104.632 Y99.091 E17.30667
G1 X105.232 Y98.918 E17.33782
G1 X105.855 Y98.86 E17.36904
G1 X106.47 Y98.931 E17.39992
G1 X107.015 Y99.079 E17.4281
G1 X107.431 Y99.288 E17.45133
G1 X107.931 Y99.609 E17.48097
G1 X107.963 Y99.635 E17.48303
G1 X108.355 Y100.024 E17.51058
G1 X108.594 Y100.358 E17.53107
G1 X108.865 Y100.837 E17.55853
G1 X109.069 Y101.454 E17.59095
G1 X109.077 Y101.492 E17.59288
G1 X109.145 Y102.06 E17.62142
G1 X109.142 Y102.324 E17.6346
G1 X109.055 Y102.92 E17.66465
G1 X108.932 Y103.318 E17.68543
G1 X108.756 Y103.733 E17.70792
G1 X108.47 Y104.177 E17.73427
G1 F1493.8 X108.11 Y104.681 E17.7715
G1 F1299.6 X107.78 Y104.915 E17.79946
G1 F1442.9 X107.173 Y105.225 E17.84188
G1 F1600 X107.123 Y105.242 E17.84484
G1 F1651.4 X106.5 Y105.427 E17.88018
G1 F1636.4 X105.952 Y105.515 E17.91064
G1 F1551.7 X105.851 Y105.521 E17.91649
G1 F1589.4 X105.342 Y105.46 E17.94546
G1 F1662.8 X104.739 Y105.304 E17.9791
G1 F1647.6 X104.703 Y105.293 E17.98115
G1 F1531.9 X104.149 Y105.07 E18.01616
G1 F1376.7 X103.881 Y104.913 E18.03642
G1 F1288 X103.459 Y104.587 E18.0736
G1 F1390 X103.352 Y104.393 E18.08791
G1 F1670.5 X103.035 Y103.923 E18.11839
G1 F1800 X103.015 Y103.891 E18.12027
G1 X102.757 Y103.367 E18.14941
G1 X102.62 Y102.848 E18.17619
G1 X102.609 Y102.781 E18.17958
G1 X102.534 Y102.245 E18.20658
G1 X102.533 Y102.2 E18.20882
G1 X102.585 Y101.585 E18.23962
G1 F1500 E11.73962
G0 F3600 X102.861 Y101.631
G0 X103.556 Y100.416
G0 X104.841 Y99.234
G0 X115.647 Y83.613
G0 X115.686 Y81.235
G0 X116.54 Y80.1
G0 X117.851 Y76.641
G1 F1500 E18.23962
G0 F3600 X117.37 Y76.641
G1 F1800 X116.934 Y76.205 E18.27038
G0 F3600 X116.369 Y76.205
G1 F1800 X117.37 Y77.206 E18.341
G0 F3600 X117.37 Y77.772
G1 F1800 X115.803 Y76.205 E18.45156
G0 F3600 X115.237 Y76.205
G1 F1800 X117.37 Y78.338 E18.60206
G0 F3600 X117.37 Y78.903
G1 F1800 X114.672 Y76.205 E18.79242
G0 F3600 X114.106 Y76.205
G1 F1800 X117.37 Y79.469 E19.02271
G0 F3600 X116.962 Y79.627
G1 F1800 X113.54 Y76.205 E19.26415
G0 F3600 X112.975 Y76.205
G1 F1800 X116.479 Y79.71 E19.51141
G0 F3600 X116.063 Y79.859
G1 F1800 X112.409 Y76.205 E19.76922
G0 F3600 X111.843 Y76.205
G1 F1800 X115.763 Y80.125 E20.0458
G0 F3600 X115.515 Y80.442
G1 F1800 X111.278 Y76.205 E20.34474
G0 F3600 X110.712 Y76.205
G1 F1800 X115.331 Y80.825 E20.67067
G0 F3600 X115.266 Y81.325
G1 F1800 X110.146 Y76.205 E21.03192
G0 F3600 X109.581 Y76.205
G1 F1800 X115.267 Y81.892 E21.43313
G0 F3600 X115.268 Y82.458
G1 F1800 X109.015 Y76.205 E21.87431
G0 F3600 X108.449 Y76.205
G1 F1800 X115.269 Y83.025 E22.3555
G0 F3600 X115.27 Y83.592
G1 F1800 X107.883 Y76.205 E22.87669
G0 F3600 X107.318 Y76.205
G1 F1800 X115.561 Y84.448 E23.45828
G1 X115.631 Y84.518
G0 F3600 X115.963 Y84.217
G0 X116.836 Y84.682
G0 X116.836 Y85.158
G1 F1800 X117.37 Y85.692 E23.49596
G0 F3600 X117.37 Y86.257
G1 F1800 X116.05 Y84.937 E23.58909
G1 X115.98 Y84.867
G0 F3600 X116.254 Y84.502
G0 X117.78 Y84.755
G0 X117.851 Y86.824
G0 X117.37 Y86.823
G1 F1800 X106.752 Y76.205 E24.33825
G0 F3600 X106.186 Y76.205
G1 F1800 X117.37 Y87.389 E25.12734
G0 F3600 X117.37 Y87.954
G1 F1800 X105.621 Y76.205 E25.9563
G0 F3600 X105.055 Y76.205
G1 F1800 X117.37 Y88.52 E26.82518
G0 F3600 X117.37 Y89.086
G1 F1800 X104.489 Y76.205 E27.73401
G0 F3600 X103.924 Y76.205
G1 F1800 X117.369 Y89.651 E28.68266
G0 F3600 X117.25 Y90.097
G1 F1800 X103.358 Y76.205 E29.66282
G0 F3600 X102.792 Y76.205
G1 F1800 X117.128 Y90.541 E30.6743
G0 F3600 X117 Y90.978
G1 F1800 X102.227 Y76.205 E31.71661
G0 F3600 X101.661 Y76.205
G1 F1800 X116.837 Y91.381 E32.78736
G0 F3600 X116.589 Y91.699
G1 F1800 X101.095 Y76.205 E33.88055
G0 F3600 X100.53 Y76.205
G1 F1800 X116.343 Y92.018 E34.99624
G0 F3600 X116.095 Y92.336
G1 F1800 X99.964 Y76.205 E36.13437
G0 F3600 X99.398 Y76.205
G1 F1800 X115.848 Y92.655 E37.29501
G0 F3600 X115.601 Y92.973
G1 F1800 X98.833 Y76.205 E38.47808
G0 F3600 X98.267 Y76.205
G1 F1800 X115.354 Y93.292 E39.68366
G0 F3600 X115.116 Y93.62
G1 F1800 X97.701 Y76.205 E40.91238
G0 F3600 X97.135 Y76.205
G1 F1800 X114.887 Y93.957 E42.16488
G0 F3600 X114.659 Y94.294
G1 F1800 X96.57 Y76.205 E43.44116
G0 F3600 X96.004 Y76.205
G1 F1800 X114.431 Y94.632 E44.74128
G0 F3600 X114.204 Y94.971
G1 F1800 X95.438 Y76.205 E46.06533
G0 F3600 X94.873 Y76.205
G1 F1800 X113.979 Y95.311 E47.41336
G0 F3600 X113.753 Y95.651
G1 F1800 X94.307 Y76.205 E48.78538
G0 F3600 X94.306 Y76.77
G1 F1800 X113.528 Y95.991 E50.14156
G0 F3600 X113.319 Y96.348
G1 F1800 X94.306 Y77.336 E51.48299
G0 F3600 X94.306 Y77.901
G1 F1800 X113.145 Y96.74 E52.81219
G0 F3600 X113.034 Y97.195
G1 F1800 X94.306 Y78.466 E54.13358
G0 F3600 X94.305 Y79.031
G1 F1800 X94.913 Y79.64 E54.17652
G1 X94.983 Y79.71
G0 F3600 X94.909 Y80.119
G0 X95.551 Y80.668
G0 X96.397 Y81.124
G1 F1800 X112.923 Y97.65 E55.34251
G0 F3600 X112.812 Y98.104
G1 F1800 X96.406 Y81.699 E56.50001
G0 F3600 X96.408 Y82.266
G1 F1800 X112.701 Y98.559 E57.64957
G0 F3600 X112.59 Y99.014
G1 F1800 X96.409 Y82.832 E58.79126
G0 F3600 X96.41 Y83.399
G1 F1800 X112.478 Y99.468 E59.92498
G0 F3600 X112.364 Y99.919
G1 F1800 X96.364 Y83.919 E61.05387
G0 F3600 X96.245 Y84.365
G1 F1800 X112.231 Y100.352 E62.1818
G0 F3600 X112.099 Y100.785
G1 F1800 X96.016 Y84.702 E63.31654
G0 F3600 X95.703 Y84.955
G1 F1800 X111.938 Y101.19 E64.46201
G0 F3600 X111.721 Y101.539
G1 F1800 X95.329 Y85.146 E65.61859
G0 F3600 X94.875 Y85.258
G1 F1800 X111.501 Y101.884 E66.79164
G0 F3600 X111.278 Y102.227
G1 F1800 X94.313 Y85.262 E67.98862
G0 F3600 X94.306 Y85.82
G1 F1800 X107.731 Y99.245 E68.93582
G1 X107.801 Y99.315
G0 F3600 X107.577 Y99.698
G0 X106.582 Y99.25
G0 X106.709 Y98.789
G1 F1800 X94.306 Y86.386 E69.81092
G0 F3600 X94.306 Y86.952
G1 F1800 X106.025 Y98.671 E70.63776
G0 F3600 X105.481 Y98.693
G1 F1800 X94.306 Y87.517 E71.42625
G0 F3600 X94.306 Y88.083
G1 F1800 X105 Y98.777 E72.18077
G0 F3600 X104.562 Y98.905
G1 F1800 X94.306 Y88.649 E72.90439
G0 F3600 X94.306 Y89.214
G1 F1800 X104.195 Y99.103 E73.60211
G0 F3600 X103.831 Y99.306
G1 F1800 X94.332 Y89.807 E74.27232
G1 X94.262 Y89.737
G0 F3600 X94.57 Y90.61
G1 F1800 X103.511 Y99.552 E74.90319
G0 F3600 X103.234 Y99.84
G1 F1800 X95.052 Y91.658 E75.48047
G1 X94.982 Y91.588
G0 F3600 X94.611 Y91.875
G0 X96.4 Y94.235
G0 X96.798 Y93.97
G1 F1800 X102.98 Y100.151 E75.91661
