;FLAVOR:Marlin
;TIME:6283
;Filament used: 6.56473m
;Layer height: 0.24
;MINX:44.12
;MINY:48.291
;MINZ:0.3
;MAXX:200.883
;MAXY:196.711
;MAXZ:1.74
;Generated with Cura_SteamEngine 5.0.0-beta+1
M140 S60
M105
M190 S60
M104 S210
M105
M109 S210
M82 ;absolute extrusion mode
G21 ;metric values
G90 ;absolute positioning
M82 ;set extruder to absolute mode
M107 ;start with the fan off
G28 X0 Y0 ;move X/Y to min endstops
M300 S1318 P266
G28 Z0 ;move Z to min endstops
G0 Z0.2
G92 E0 ;zero the extruded length
G1 X40 E25 F400 ; Extrude 25mm of filament in a 4cm line. Reduce speed (F) if you have a nozzle smaller than 0.4mm!
G92 E0 ;zero the extruded length again
G1 E-1 F500 ; Retract a little
G1 X80 F4000 ; Quickly wipe away from the filament line
M117 ; Printing…
G5
G92 E0
G92 E0
G1 F1500 E-6.5
;LAYER_COUNT:7
;LAYER:0
M107
;MESH:alieni2.stl(16)
G0 F3600 X94.373 Y71.782 Z0.3
;TYPE:WALL-OUTER
G1 F1500 E0
G1 F1800 X94.375 Y73.315 E0.07648
G1 X99.784 Y73.316 E0.34634
G1 X100.209 Y73.24 E0.36788
G1 X101.684 Y72.808 E0.44456
G1 X101.865 Y72.743 E0.45415
G1 X104.21 Y70.924 E0.60222
G1 X106.708 Y69.246 E0.75235
G1 X107.033 Y69.072 E0.77074
G1 X110.09 Y68.333 E0.92765
G1 X111.571 Y67.877 E1.00496
G1 X112.274 Y67.443 E1.04618
G1 X114.076 Y66.276 E1.15328
G1 X114.512 Y65.864 E1.18321
G1 X114.872 Y65.478 E1.20954
G1 X115.264 Y64.903 E1.24426
G1 X116.239 Y63.427 E1.33252
G1 X116.393 Y63.019 E1.35427
G1 X116.917 Y60.877 E1.46429
G1 X116.917 Y60.804 E1.46793
G1 X116.714 Y59.9 E1.51416
G1 X116.398 Y58.605 E1.58066
G1 X116.178 Y58.089 E1.60865
G1 X115.06 Y56.391 E1.71007
G1 X114.678 Y55.916 E1.74048
G1 X114.279 Y55.496 E1.76938
G1 X114.028 Y55.304 E1.78515
G1 X111.815 Y53.868 E1.91677
G1 X111.57 Y53.73 E1.93079
G1 X110.09 Y53.275 E2.00804
G1 X107.745 Y52.714 E2.12834
G1 X107.024 Y52.534 E2.16541
G1 X106.734 Y52.376 E2.18189
G1 X104.581 Y50.939 E2.31103
G1 X104.105 Y50.607 E2.33998
G1 X102.19 Y49.112 E2.46119
G1 X101.778 Y48.83 E2.4861
G1 X100.239 Y48.374 E2.56618
G1 X99.859 Y48.293 E2.58556
G1 X94.353 Y48.292 E2.86026
G1 X94.302 Y48.296 E2.86281
G1 X94.274 Y48.453 E2.87076
G1 X94.273 Y49.825 E2.93921
G1 X94.196 Y50.085 E2.95274
G1 X93.905 Y50.352 E2.97245
G1 X93.705 Y50.397 E2.98267
G1 X91.305 Y50.396 E3.10241
G1 X91.042 Y50.318 E3.1161
G1 X90.782 Y50.074 E3.13388
G1 X90.701 Y49.825 E3.14695
G1 X90.699 Y48.432 E3.21645
G1 X90.675 Y48.293 E3.22348
G1 X85.439 Y48.292 E3.48471
G1 X85.349 Y48.301 E3.48922
G1 X85.318 Y48.454 E3.49701
G1 X85.317 Y73.175 E4.73034
G1 X85.363 Y73.315 E4.7377
G1 X90.673 Y73.315 E5.00261
G1 X90.699 Y73.163 E5.01031
G1 X90.701 Y71.784 E5.07911
G1 X90.826 Y71.466 E5.09615
G1 X90.999 Y71.318 E5.10751
G1 X91.326 Y71.212 E5.12466
G1 X93.72 Y71.212 E5.2441
G1 X94.134 Y71.323 E5.26548
G1 X94.28 Y71.509 E5.27728
G1 X94.373 Y71.782 E5.29167
G0 F3600 X94.373 Y71.982
G1 F1500 E-1.20833
G0 F3600 X94.783 Y71.982
G0 X94.773 Y71.161
G0 X109.27 Y61.632
G1 F1500 E5.29167
G0 F3600 X109.729 Y60.888
G1 F1800 X109.786 Y60.268 E5.32273
G1 X109.942 Y59.797 E5.34748
G1 X110.256 Y59.258 E5.3786
G1 X110.279 Y59.231 E5.38037
G1 X110.673 Y58.834 E5.40828
G1 X111.087 Y58.565 E5.43291
G1 X111.635 Y58.354 E5.46221
G1 X111.683 Y58.342 E5.46468
G1 X112.251 Y58.274 E5.49322
G1 X112.304 Y58.275 E5.49586
G1 X112.928 Y58.365 E5.52731
G1 X113.501 Y58.598 E5.55817
G1 X113.544 Y58.623 E5.56066
G1 X113.996 Y58.965 E5.58893
G1 X114.03 Y58.997 E5.59126
G1 X114.368 Y59.408 E5.61781
G1 X114.606 Y59.857 E5.64316
G1 X114.736 Y60.274 E5.66496
G1 X114.801 Y60.776 E5.69021
G1 X114.766 Y61.159 E5.7094
G1 X114.594 Y61.784 E5.74174
G1 X114.281 Y62.307 E5.77215
G1 X113.884 Y62.744 E5.8016
G1 X113.852 Y62.77 E5.80366
G1 X113.423 Y63.05 E5.82922
G1 X112.83 Y63.268 E5.86074
G1 X112.351 Y63.333 E5.88485
G1 X111.757 Y63.284 E5.91459
G1 X111.268 Y63.129 E5.94018
G1 X110.714 Y62.806 E5.97218
G1 X110.673 Y62.775 E5.97474
G1 X110.302 Y62.404 E6.00092
G1 X110.01 Y61.953 E6.02772
G1 X109.99 Y61.914 E6.02991
G1 X109.789 Y61.355 E6.05954
G1 X109.729 Y60.888 E6.08303
G0 F3600 X109.747 Y60.689
G0 X109.334 Y60.989
;TYPE:WALL-INNER
G1 F1800 X109.331 Y60.852 E6.08987
G1 X109.391 Y60.203 E6.12239
G1 X109.544 Y59.712 E6.14805
G1 X109.902 Y59.07 E6.18472
G1 X109.995 Y58.949 E6.19233
G1 X110.389 Y58.552 E6.22024
G1 X110.832 Y58.248 E6.24704
G1 X111.317 Y58.048 E6.27322
G1 X111.635 Y57.945 E6.28989
G1 X112.203 Y57.877 E6.31843
G1 X112.361 Y57.879 E6.32632
G1 X112.985 Y57.969 E6.35777
G1 X113.503 Y58.165 E6.3854
G1 X113.786 Y58.304 E6.40113
G1 X114.238 Y58.646 E6.42941
G1 X114.339 Y58.743 E6.43639
G1 X114.68 Y59.157 E6.46315
G1 X114.946 Y59.637 E6.49053
G1 X115.109 Y60.119 E6.51592
G1 X115.197 Y60.688 E6.54464
G1 X115.201 Y60.787 E6.54958
G1 X115.152 Y61.266 E6.57361
G1 X114.98 Y61.891 E6.60595
G1 X114.705 Y62.381 E6.63398
G1 X114.486 Y62.706 E6.65353
G1 X114.071 Y63.105 E6.68225
G1 X113.642 Y63.385 E6.70781
G1 X112.965 Y63.645 E6.74399
G1 X112.45 Y63.728 E6.77002
G1 X112.318 Y63.732 E6.77661
G1 X111.724 Y63.683 E6.80634
G1 X111.193 Y63.531 E6.8339
G1 X111.066 Y63.475 E6.84082
G1 X110.512 Y63.152 E6.87282
G1 X110.39 Y63.058 E6.8805
G1 X110.019 Y62.687 E6.90668
G1 X109.672 Y62.167 E6.93787
G1 X109.614 Y62.05 E6.94438
G1 X109.412 Y61.492 E6.97399
G1 X109.334 Y60.989 E6.99938
G1 F1500 E0.49938
G0 F3600 X109.324 Y60.989
G0 X109.331 Y59.784
G0 X94.719 Y50.343
G1 F1500 E6.99938
G0 F3600 X94.224 Y50.624
G1 F1800 X93.991 Y50.743 E7.01243
G1 X93.705 Y50.797 E7.02695
G1 X91.326 Y50.797 E7.14564
G1 X90.917 Y50.708 E7.16653
G1 X90.593 Y50.47 E7.18658
G1 X90.408 Y50.217 E7.20222
G1 X90.301 Y49.825 E7.22249
G1 X90.3 Y48.692 E7.27902
G1 X85.718 Y48.693 E7.50761
G1 X85.717 Y72.915 E8.71606
G1 X90.299 Y72.917 E8.94465
G1 X90.301 Y71.784 E9.00118
G1 X90.411 Y71.384 E9.02187
G1 X90.639 Y71.085 E9.04063
G1 X90.862 Y70.942 E9.05385
G1 X91.229 Y70.819 E9.07316
G1 X91.326 Y70.812 E9.07801
G1 X93.75 Y70.813 E9.19895
G1 X94.248 Y70.929 E9.22446
G1 X94.47 Y71.096 E9.23832
G1 X94.652 Y71.362 E9.2544
G1 X94.773 Y71.781 E9.27616
G1 X94.775 Y72.915 E9.33273
G1 X99.762 Y72.916 E9.58153
G1 X100.097 Y72.856 E9.59851
G1 X101.571 Y72.424 E9.67514
G1 X101.724 Y72.346 E9.68371
G1 X103.971 Y70.604 E9.82556
G1 X106.49 Y68.91 E9.97701
G1 X106.939 Y68.683 E10.00211
G1 X109.984 Y67.947 E10.1584
G1 X111.172 Y67.582 E10.2204
G1 X111.568 Y67.423 E10.24169
G1 X113.842 Y65.951 E10.37683
G1 X114.223 Y65.587 E10.40312
G1 X114.588 Y65.192 E10.42996
G1 X114.93 Y64.682 E10.46059
G1 X115.884 Y63.238 E10.54693
G1 X116.004 Y62.924 E10.56371
G1 X116.517 Y60.829 E10.67131
G1 X116.517 Y60.804 E10.67256
G1 X116.325 Y59.994 E10.71409
G1 X116.014 Y58.721 E10.77947
G1 X115.836 Y58.296 E10.80246
G1 X114.734 Y56.624 E10.90236
G1 X114.388 Y56.191 E10.93001
G1 X114.007 Y55.79 E10.95761
G1 X113.81 Y55.64 E10.96996
G1 X111.608 Y54.21 E11.10095
G1 X111.18 Y54.029 E11.12414
G1 X109.984 Y53.661 E11.18657
G1 X107.648 Y53.102 E11.3064
G1 X106.914 Y52.918 E11.34415
G1 X106.512 Y52.709 E11.36676
G1 X104.353 Y51.267 E11.49629
G1 X103.859 Y50.922 E11.52635
G1 X101.948 Y49.431 E11.64727
G1 X101.639 Y49.207 E11.66632
G1 X100.141 Y48.762 E11.74428
G1 X99.817 Y48.693 E11.76081
G1 X94.674 Y48.692 E12.01739
G1 X94.673 Y49.825 E12.07392
G1 X94.568 Y50.244 E12.09547
G1 X94.224 Y50.624 E12.12104
G1 F1500 E5.62104
G0 F3600 X94.232 Y50.632
G0 X109.643 Y59.156
G0 X109.288 Y60.231
G1 F1500 E12.12104
G0 F3600 X109.009 Y60.196
;TYPE:SKIN
G1 F1800 X109.149 Y59.703 E12.14661
G1 X109.359 Y59.247 E12.17165
G1 X109.698 Y58.714 E12.20317
G1 X109.725 Y58.68 E12.20533
G1 X110.133 Y58.272 E12.23412
G1 X110.774 Y57.853 E12.27233
G1 X111.332 Y57.652 E12.30192
G1 X111.588 Y57.567 E12.31537
G1 X112.16 Y57.499 E12.34411
G1 X112.413 Y57.502 E12.35674
G1 X112.939 Y57.576 E12.38324
G1 X113.417 Y57.716 E12.40809
G1 X113.979 Y57.978 E12.43902
G1 X114.016 Y58 E12.44117
G1 F1722.5 X114.481 Y58.331 E12.47093
G1 F1434.3 X114.697 Y58.446 E12.48625
G1 F1297.3 X115.024 Y58.866 E12.52309
G1 F1437.1 X115.302 Y59.452 E12.56362
G1 F1600 X115.369 Y59.617 E12.57362
G1 F1670.5 X115.518 Y60.144 E12.60306
G1 F1610.7 X115.616 Y60.802 E12.64015
G1 F1600 X115.55 Y61.312 E12.66901
G1 F1678.3 X115.542 Y61.35 E12.67109
G1 F1651.4 X115.357 Y62.027 E12.70925
G1 F1478.4 X115.097 Y62.58 E12.74637
G1 F1323.5 X114.808 Y63.035 E12.78295
G1 F1503.1 X114.305 Y63.403 E12.82018
G1 F1800 X114.277 Y63.426 E12.82199
G1 X113.848 Y63.707 E12.84757
G1 X113.129 Y63.978 E12.88591
G1 X112.888 Y64.051 E12.89847
G1 X112.325 Y64.111 E12.92672
G1 X112.287 Y64.111 E12.92861
G1 X111.673 Y64.059 E12.95936
G1 X111.132 Y63.899 E12.9875
G1 X110.872 Y63.803 E13.00133
G1 X110.395 Y63.524 E13.0289
G1 X110.109 Y63.318 E13.04648
G1 X109.739 Y62.942 E13.0728
G1 X109.614 Y62.785 E13.08281
G1 X109.29 Y62.26 E13.11359
G1 X109.079 Y61.686 E13.1441
G1 X109.012 Y61.435 E13.15706
G1 X108.949 Y60.886 E13.18463
G1 X108.949 Y60.864 E13.18573
G1 X109.009 Y60.196 E13.21919
G1 F1500 E6.71919
G0 F3600 X109.288 Y60.231
G0 X94.773 Y71.161
G1 F1500 E13.21919
G0 F3600 X94.727 Y70.814
G1 F1800 X95.012 Y71.236 E13.2446
G1 X95.147 Y71.734 E13.27034
G1 X95.153 Y71.786 E13.27295
G1 X95.155 Y72.535 E13.31032
G1 X99.74 Y72.536 E13.53907
G1 X99.996 Y72.491 E13.55203
G1 X101.486 Y72.049 E13.62957
G1 X103.732 Y70.308 E13.77135
G1 X106.277 Y68.595 E13.9244
G1 X106.736 Y68.35 E13.95036
G1 X106.826 Y68.325 E13.95502
G1 X109.809 Y67.599 E14.10818
G1 X111.055 Y67.221 E14.17315
G1 X111.499 Y67.01 E14.19767
G1 X113.566 Y65.676 E14.32041
G1 X113.95 Y65.322 E14.34646
G1 X114.318 Y64.911 E14.37398
G1 X114.956 Y63.95 E14.43153
G1 F1503.1 X115.232 Y63.392 E14.46873
G1 F1323.5 X115.558 Y62.84 E14.51222
G1 F1478.4 X115.775 Y62.168 E14.55512
G1 F1655.2 X115.96 Y61.446 E14.59555
G1 F1682.2 X115.974 Y61.383 E14.599
G1 F1600 X116.08 Y60.867 E14.62857
G1 F1541.8 X116.067 Y60.683 E14.63931
G1 F1614.3 X115.942 Y60.095 E14.67275
G1 F1686.2 X115.926 Y60.025 E14.67657
G1 F1655.2 X115.771 Y59.428 E14.71004
G1 F1589.4 X115.731 Y59.296 E14.71783
G1 F1487.6 X115.568 Y58.819 E14.74826
G1 F1374 X115.458 Y58.544 E14.76762
G1 F1297.3 X115.155 Y58.109 E14.80432
G1 F1434.3 X115.038 Y57.81 E14.82442
G1 F1722.5 X114.74 Y57.324 E14.85414
G1 F1800 X114.426 Y56.847 E14.88263
G1 X114.107 Y56.451 E14.908
G1 X113.737 Y56.082 E14.93407
G1 X113.556 Y55.929 E14.9459
G1 X111.646 Y54.69 E15.05948
G1 X111.259 Y54.453 E15.08212
G1 X109.957 Y54.052 E15.15009
G1 X108.289 Y53.65 E15.23569
G1 X106.822 Y53.287 E15.31108
G1 X106.37 Y53.069 E15.33612
G1 X104.398 Y51.756 E15.45432
G1 X103.658 Y51.247 E15.49912
G1 X102.249 Y50.15 E15.58821
G1 X101.48 Y49.558 E15.63663
G1 X101.2 Y49.474 E15.65121
G1 X99.968 Y49.115 E15.71524
G1 X99.629 Y49.074 E15.73227
G1 X95.054 Y49.073 E15.96052
G1 X95.054 Y49.823 E15.99794
G1 X95.018 Y50.089 E16.01133
G1 X94.881 Y50.457 E16.03092
G1 X94.532 Y50.858 E16.05744
G1 X94.251 Y51.049 E16.07439
G1 X93.763 Y51.175 E16.09954
G1 X91.327 Y51.177 E16.22107
G1 X90.912 Y51.106 E16.24207
G1 X90.55 Y50.923 E16.26231
G1 X90.171 Y50.572 E16.28808
G1 X90.051 Y50.346 E16.30085
G1 X89.924 Y49.838 E16.32697
G1 X89.92 Y49.072 E16.36519
G1 X86.098 Y49.073 E16.55587
G1 X86.098 Y72.535 E17.72639
G1 X89.919 Y72.537 E17.91702
G1 X89.921 Y71.789 E17.95434
G1 X89.988 Y71.427 E17.97271
G1 X90.175 Y71.037 E17.99429
G1 X90.545 Y70.677 E18.02004
G1 X91.027 Y70.48 E18.04602
G1 X91.33 Y70.432 E18.06133
G1 X93.716 Y70.432 E18.18036
G1 X94.35 Y70.562 E18.21265
G1 X94.727 Y70.814 E18.23528
G0 F3600 X94.518 Y71.001
G0 X94.947 Y72.743
G0 X99.941 Y72.735
G0 X101.625 Y72.218
G0 X107.012 Y68.5
G0 X110.525 Y67.613
G0 X111.518 Y67.263
G0 X113.924 Y65.667
G0 X114.591 Y64.903
G0 X115.822 Y62.966
G0 X116.349 Y60.781
G0 X115.745 Y58.453
G0 X114.37 Y56.406
G0 X113.096 Y55.298
G0 X112.834 Y55.7
G1 F1800 X114.578 Y57.443 E18.35829
G1 X114.648 Y57.513
G0 F3600 X114.787 Y58.218
G1 F1800 X111.255 Y54.686 E18.60749
G1 X111.185 Y54.616
G0 F3600 X110.401 Y54.399
G1 F1800 X113.575 Y57.572 E18.8314
G1 X113.645 Y57.642
G0 F3600 X112.791 Y57.354
G1 F1800 X109.615 Y54.178 E19.05548
G0 F3600 X108.865 Y53.993
G1 F1800 X112.171 Y57.3 E19.28877
G0 F3600 X111.661 Y57.355
G1 F1800 X108.115 Y53.81 E19.53893
G0 F3600 X107.366 Y53.626
G1 F1800 X111.221 Y57.481 E19.81092
G0 F3600 X110.805 Y57.63
G1 F1800 X106.55 Y53.375 E20.11113
G1 X106.48 Y53.305
G0 F3600 X106.694 Y52.93
G0 X105.282 Y52.009
G0 X105.016 Y52.407
G1 F1800 X110.434 Y57.825 E20.4934
G0 F3600 X110.09 Y58.047
G1 F1800 X103.145 Y51.102 E20.98341
G1 X103.075 Y51.032
G0 F3600 X103.363 Y50.663
G0 X101.923 Y49.608
G0 X101.146 Y49.669
G1 F1800 X109.799 Y58.322 E21.59393
G0 F3600 X109.525 Y58.613
G1 F1800 X100.346 Y49.435 E22.24152
G0 F3600 X99.62 Y49.274
G1 F1800 X109.306 Y58.96 E22.92492
G0 F3600 X109.103 Y59.322
G1 F1800 X99.054 Y49.274 E23.63389
G0 F3600 X98.488 Y49.274
G1 F1800 X108.934 Y59.719 E24.37088
G0 F3600 X108.811 Y60.162
G1 F1800 X97.922 Y49.274 E25.13912
G0 F3600 X97.357 Y49.274
G1 F1800 X108.767 Y60.683 E25.94412
G0 F3600 X108.793 Y61.275
G1 F1800 X96.791 Y49.274 E26.79089
G0 F3600 X96.225 Y49.274
G1 F1800 X108.998 Y62.046 E27.69206
G1 X109.068 Y62.116
G0 F3600 X109.478 Y61.968
G0 X110.474 Y63.064
G0 X111.907 Y63.664
G0 X113.102 Y63.551
G0 X114.406 Y62.93
G0 X114.816 Y63.339
G1 F1800 X114.925 Y63.447 E27.69972
G0 F3600 X114.774 Y63.862
G1 F1800 X114.453 Y63.542 E27.72233
G0 F3600 X114.116 Y63.77
G1 F1800 X114.548 Y64.202 E27.75281
G0 F3600 X114.322 Y64.541
G1 F1800 X113.745 Y63.964 E27.79352
G0 F3600 X113.335 Y64.12
G1 F1800 X114.088 Y64.874 E27.84669
G0 F3600 X113.809 Y65.16
G1 F1800 X112.9 Y64.251 E27.91082
G0 F3600 X112.388 Y64.305
G1 F1800 X113.519 Y65.436 E27.99062
G0 F3600 X113.195 Y65.677
G1 F1800 X111.787 Y64.27 E28.08993
G0 F3600 X111.017 Y64.065
G1 F1800 X112.85 Y65.898 E28.21925
G0 F3600 X112.507 Y66.12
G1 F1800 X95.66 Y49.274 E29.40787
G0 F3600 X95.252 Y49.432
G1 F1800 X112.163 Y66.342 E30.60099
G0 F3600 X111.819 Y66.564
G1 F1800 X95.231 Y49.976 E31.77137
G0 F3600 X95.101 Y50.412
G1 F1800 X111.476 Y66.786 E32.92667
G0 F3600 X111.104 Y66.981
G1 F1800 X94.882 Y50.758 E34.07126
G0 F3600 X94.6 Y51.043
G1 F1800 X110.682 Y67.124 E35.2059
G0 F3600 X110.247 Y67.255
G1 F1800 X94.248 Y51.256 E36.33471
G0 F3600 X93.8 Y51.374
G1 F1800 X109.811 Y67.385 E37.46437
G0 F3600 X109.361 Y67.501
G1 F1800 X93.235 Y51.374 E38.60219
G0 F3600 X92.67 Y51.375
G1 F1800 X108.907 Y67.612 E39.74779
G0 F3600 X108.452 Y67.723
G1 F1800 X92.105 Y51.376 E40.90116
G0 F3600 X91.54 Y51.376
G1 F1800 X107.997 Y67.834 E42.06233
G0 F3600 X107.543 Y67.945
G1 F1800 X90.897 Y51.299 E43.23679
G1 X90.827 Y51.229
G0 F3600 X90.964 Y50.829
G0 X90.201 Y49.558
G0 X89.721 Y49.558
G1 F1800 X89.436 Y49.272 E43.25694
G0 F3600 X88.87 Y49.272
G1 F1800 X89.814 Y50.216 E43.32354
G1 X89.884 Y50.286
G0 F3600 X90.271 Y50.139
G0 X90.128 Y48.864
G0 X88.304 Y48.793
G0 X88.304 Y49.272
G1 F1800 X107.088 Y68.056 E44.64886
G0 F3600 X106.643 Y68.176
G1 F1800 X87.739 Y49.273 E45.9826
G0 F3600 X87.174 Y49.273
G1 F1800 X106.271 Y68.37 E47.33
G0 F3600 X105.924 Y68.589
G1 F1800 X86.608 Y49.273 E48.69284
G0 F3600 X86.297 Y49.527
G1 F1800 X105.586 Y68.817 E50.05382
G0 F3600 X105.248 Y69.044
G1 F1800 X86.297 Y50.093 E51.39092
G0 F3600 X86.297 Y50.659
G1 F1800 X104.91 Y69.272 E52.70417
G0 F3600 X104.572 Y69.5
G1 F1800 X86.297 Y51.224 E53.9936
G0 F3600 X86.297 Y51.79
G1 F1800 X104.234 Y69.727 E55.25915
G0 F3600 X103.896 Y69.955
G1 F1800 X86.297 Y52.356 E56.50086
G0 F3600 X86.297 Y52.921
G1 F1800 X103.56 Y70.185 E57.71889
G0 F3600 X103.241 Y70.432
G1 F1800 X86.297 Y53.487 E58.91442
G0 F3600 X86.297 Y54.053
G1 F1800 X102.923 Y70.679 E60.08747
G0 F3600 X102.604 Y70.926
G1 F1800 X86.297 Y54.619 E61.23802
G0 F3600 X86.297 Y55.184
G1 F1800 X102.286 Y71.173 E62.36613
G0 F3600 X101.968 Y71.421
G1 F1800 X86.297 Y55.75 E63.4718
G0 F3600 X86.297 Y56.316
G1 F1800 X101.649 Y71.668 E64.55497
G0 F3600 X101.308 Y71.892
G1 F1800 X86.297 Y56.881 E65.61407
G0 F3600 X86.297 Y57.447
G1 F1800 X100.871 Y72.021 E66.64235
G0 F3600 X100.435 Y72.151
G1 F1800 X86.297 Y58.013 E67.63986
G0 F3600 X86.297 Y58.578
G1 F1800 X99.999 Y72.28 E68.60661
G0 F3600 X99.487 Y72.334
G1 F1800 X86.297 Y59.144 E69.53724
G0 F3600 X86.297 Y59.71
G1 F1800 X98.922 Y72.334 E70.42796
G0 F3600 X98.356 Y72.334
